img/logo__tab.svg

<svg width="50" height="86" viewBox="0 0 50 86" fill="none" xmlns="http://www.w3.org/2000/svg">
<g clip-path="url(#clip0)">
<path d="M0.5 -19L0.500004 83" stroke="#F04E23"/>
<path d="M21.1111 48.9547H16.2963V65.3576H8.02466V25.2754H16.2963V41.3083H20.1234L29.8765 25.2754H40L27.6543 44.2682L41.358 65.3576H31.4815L21.1111 48.9547Z" fill="black"/>
<path d="M8.51855 81.5139V75.1007H9.2593V78.0606C9.50621 77.814 9.75312 77.5673 10 77.3206C10.247 77.074 10.6173 76.8273 10.8642 76.4573C11.1111 76.2107 11.3581 75.964 11.605 75.7174C11.8519 75.4707 11.9753 75.224 12.2223 75.1007H13.2099C12.963 75.3474 12.8395 75.594 12.5926 75.8407C12.3457 76.0874 12.0988 76.334 11.7284 76.704C11.4815 76.9507 11.2346 77.1973 10.8642 77.444C10.4939 77.6906 10.3704 77.9373 10.1235 78.0606C10.3704 78.184 10.7408 78.4306 10.9877 78.6773C11.3581 78.9239 11.605 79.2939 11.8519 79.5406C12.0988 79.9106 12.4692 80.1572 12.7161 80.5272C12.963 80.8972 13.2099 81.1439 13.3334 81.3905H12.3457C12.0988 81.1439 11.9753 80.7739 11.605 80.4039C11.2346 80.0339 11.1111 79.7872 10.7408 79.5406C10.4939 79.2939 10.1235 79.0473 9.87658 78.8006C9.62967 78.5539 9.2593 78.4306 9.13584 78.1839V81.3905H8.51855V81.5139Z" fill="black"/>
<path d="M19.1359 75.8407V76.0874C19.1359 76.334 19.1359 76.5807 19.1359 76.9507C19.1359 77.1973 19.1359 77.5673 19.1359 77.814C19.1359 78.0606 19.0124 78.4306 19.0124 78.6773C19.0124 78.9239 18.889 79.2939 18.7655 79.5406C18.6421 79.7872 18.5186 80.0339 18.3952 80.2806C18.2717 80.5272 18.1482 80.7739 17.9013 80.8972C17.6544 81.0205 17.531 81.2672 17.284 81.3905C17.0371 81.5139 16.7902 81.6372 16.4198 81.6372L16.2964 81.0205C16.6668 80.8972 17.0371 80.7739 17.284 80.5272C17.531 80.2806 17.7779 79.9106 17.9013 79.4173C18.0248 78.9239 18.1482 78.4306 18.2717 77.814C18.2717 77.1973 18.3952 76.5807 18.3952 75.8407V75.1007H22.3458V81.5139H21.4816V75.8407H19.1359V75.8407Z" fill="black"/>
<path d="M28.395 81.6372C28.1481 81.1439 27.9012 80.6505 27.6543 80.0339C27.4074 79.4173 27.1605 78.9239 26.9136 78.4306C26.6667 77.814 26.5432 77.3206 26.2963 76.8273C26.1728 76.334 25.9259 75.7174 25.8025 75.224H26.6667C26.7901 75.594 26.9136 76.0874 27.037 76.4573C27.1605 76.8273 27.2839 77.444 27.5309 77.814C27.6543 78.3073 27.9012 78.8006 28.1481 79.2939C28.395 79.7872 28.642 80.2806 28.8889 80.7739C29.0123 80.2806 29.2592 79.7872 29.3827 79.2939C29.5062 78.8006 29.6296 78.4306 29.7531 77.9373C29.8765 77.444 30 77.074 30.1234 76.5807C30.2469 76.0874 30.3704 75.594 30.4938 75.1007H31.2346C30.9876 76.334 30.6173 77.444 30.3704 78.5539C30 79.6639 29.6296 80.7739 29.2592 81.6372C29.1358 82.0072 28.8889 82.3772 28.7654 82.6238C28.642 82.8705 28.395 83.1172 28.2716 83.2405C28.0247 83.3638 27.7778 83.4871 27.5309 83.6105C27.2839 83.7338 26.9136 83.7338 26.5432 83.7338C26.2963 83.7338 26.1728 83.7338 25.9259 83.6105C25.8025 83.6105 25.679 83.4871 25.5555 83.4871L25.679 82.8705C25.679 82.8705 25.8025 82.8705 25.9259 82.9938C26.0494 82.9938 26.2963 83.1171 26.4197 83.1171C26.6667 83.1171 26.9136 83.1171 27.037 82.9938C27.1605 82.8705 27.4074 82.8705 27.5309 82.7472C27.6543 82.6238 27.7778 82.5005 27.9012 82.2538C28.0247 82.0072 28.2716 81.8839 28.395 81.6372Z" fill="black"/>
<path d="M35.3087 76.0873C35.4321 75.964 35.5556 75.8407 35.8025 75.7174C36.0494 75.594 36.1729 75.4707 36.4198 75.4707C36.6667 75.3474 36.7901 75.3474 37.0371 75.3474C37.284 75.3474 37.4074 75.3474 37.5309 75.3474C38.0247 75.3474 38.3951 75.4707 38.7654 75.594C39.1358 75.7174 39.3827 75.964 39.6296 76.2107C39.8766 76.4573 40 76.8273 40.1235 77.1973C40.2469 77.5673 40.2469 78.0606 40.2469 78.5539C40.2469 78.9239 40.2469 79.2939 40.1235 79.6639C40 80.0339 39.8766 80.4039 39.6296 80.6506C39.3827 81.0205 39.1358 81.2672 38.7654 81.3905C38.3951 81.5139 37.9012 81.6372 37.4074 81.6372C36.7901 81.6372 36.2963 81.5139 35.9259 81.2672C35.5556 81.0205 35.3087 80.7739 35.0617 80.2806C34.8148 79.9106 34.6914 79.4173 34.5679 79.0473C34.4445 78.6773 34.4445 78.0606 34.4445 77.5673C34.4445 76.9507 34.4445 76.2107 34.5679 75.594C34.6914 74.9774 34.8148 74.4841 35.0617 73.9907C35.3087 73.4974 35.679 73.1274 36.1729 72.7574C36.6667 72.3875 37.284 72.2641 38.1482 72.1408C38.3951 72.1408 38.642 72.1408 38.7654 72.0175C38.8889 72.0175 39.0124 72.0175 39.1358 72.0175C39.2593 72.0175 39.3827 72.0175 39.3827 72.0175C39.3827 72.0175 39.5062 72.0175 39.6296 72.0175L39.7531 72.7574C39.6296 72.7574 39.5062 72.8808 39.3827 72.8808C39.2593 72.8808 38.8889 73.0041 38.3951 73.0041C37.9012 73.0041 37.5309 73.1274 37.1605 73.2508C36.7901 73.3741 36.5432 73.6207 36.2963 73.8674C36.0494 74.1141 35.8025 74.3607 35.679 74.7307C35.5556 75.1007 35.4321 75.594 35.3087 76.0873ZM35.3087 76.9507C35.3087 77.074 35.3087 77.074 35.3087 77.3206C35.3087 77.5673 35.3087 77.5673 35.3087 77.6906C35.3087 78.0606 35.3087 78.4306 35.4321 78.8006C35.4321 79.1706 35.5556 79.5406 35.8025 79.7872C35.9259 80.0339 36.1729 80.2806 36.4198 80.5272C36.6667 80.6506 37.0371 80.7739 37.4074 80.7739C37.7778 80.7739 38.0247 80.6506 38.2716 80.5272C38.5185 80.4039 38.7654 80.1572 38.8889 79.9106C39.0124 79.6639 39.1358 79.4173 39.2593 79.0473C39.3827 78.8006 39.3827 78.4306 39.3827 78.0606C39.3827 77.6906 39.3827 77.444 39.2593 77.074C39.2593 76.8273 39.1358 76.4573 38.8889 76.334C38.7654 76.0873 38.5185 75.964 38.2716 75.8407C38.0247 75.7174 37.6543 75.594 37.284 75.594C37.0371 75.594 36.9136 75.594 36.6667 75.7174C36.4198 75.8407 36.2963 75.8407 36.0494 75.964C35.9259 76.0874 35.679 76.2107 35.5556 76.334C35.4321 76.4573 35.4321 76.8273 35.3087 76.9507Z" fill="black"/>
</g>
<defs>
<clipPath id="clip0">
<rect width="50" height="86" fill="white"/>
</clipPath>
</defs>
</svg>

<svg width="50" height="86" fill="none" xmlns="http://www.w3.org/2000/svg"><g clip-path="url(#clip0)"><path d="M.5-19V83" stroke="#F04E23"/><path d="M21.111 48.955h-4.815v16.403H8.025V25.275h8.271v16.033h3.827l9.753-16.033H40L27.654 44.268l13.704 21.09h-9.876l-10.37-16.403zM8.519 81.514V75.1h.74v2.96l.741-.74c.247-.247.617-.494.864-.864l.741-.74c.247-.246.37-.493.617-.616h.988c-.247.246-.37.493-.617.74l-.865.863c-.246.247-.493.493-.864.74-.37.247-.494.493-.74.617.246.123.617.37.864.616.37.247.617.617.864.864.247.37.617.616.864.986s.494.617.617.864h-.987c-.247-.247-.37-.617-.741-.987-.37-.37-.494-.617-.864-.863-.247-.247-.617-.494-.864-.74-.247-.247-.618-.37-.741-.617v3.207h-.617v.123zm10.617-5.674v1.974c0 .247-.124.617-.124.863 0 .247-.123.617-.247.864l-.37.74c-.123.246-.247.493-.494.616s-.37.37-.617.493c-.247.124-.494.247-.864.247l-.124-.617c.37-.123.741-.246.988-.493.247-.246.494-.616.617-1.11.124-.493.247-.986.37-1.603 0-.617.124-1.233.124-1.973v-.74h3.95v6.413h-.863V75.84h-2.346zm9.259 5.797a20.071 20.071 0 01-.74-1.603 20.071 20.071 0 00-.741-1.603c-.247-.617-.37-1.11-.618-1.604-.123-.493-.37-1.11-.494-1.603h.865c.123.37.247.863.37 1.233.123.37.247.987.494 1.357.123.493.37.987.617 1.48l.74 1.48c.124-.493.371-.987.495-1.48.123-.493.247-.863.37-1.357.123-.493.247-.863.37-1.356l.37-1.48h.742c-.247 1.233-.618 2.343-.865 3.453-.37 1.11-.74 2.22-1.11 3.083-.124.37-.371.74-.495.987-.123.247-.37.493-.493.617l-.741.37c-.247.123-.617.123-.988.123-.247 0-.37 0-.617-.123-.123 0-.247-.124-.37-.124l.123-.616s.123 0 .247.123c.123 0 .37.123.494.123.247 0 .494 0 .617-.123s.37-.123.494-.247c.123-.123.247-.246.37-.493.124-.247.37-.37.494-.617zm6.914-5.55c.123-.123.247-.246.494-.37.246-.123.37-.246.617-.246.247-.124.37-.124.617-.124h.494c.494 0 .864.124 1.234.247s.618.37.865.617c.247.246.37.616.493.986.124.37.124.864.124 1.357 0 .37 0 .74-.123 1.11-.124.37-.247.74-.494.987-.247.37-.494.616-.865.74-.37.123-.864.246-1.358.246-.617 0-1.11-.123-1.481-.37-.37-.246-.617-.493-.864-.986-.247-.37-.37-.864-.494-1.234-.123-.37-.123-.986-.123-1.48 0-.616 0-1.356.123-1.973s.247-1.11.494-1.603c.247-.494.617-.864 1.11-1.234.495-.37 1.112-.493 1.976-.616.247 0 .494 0 .617-.124h.865l.123.74c-.123 0-.247.124-.37.124-.124 0-.494.123-.988.123s-.864.123-1.235.247c-.37.123-.617.37-.864.616-.247.247-.493.494-.617.864-.123.37-.247.863-.37 1.356zm0 .864v.74c0 .37 0 .74.123 1.11 0 .37.124.74.37.986.124.247.37.494.618.74.247.124.617.247.987.247s.618-.123.865-.247a1.49 1.49 0 00.617-.616 6.01 6.01 0 00.37-.864c.124-.246.124-.616.124-.986s0-.617-.124-.987c0-.247-.123-.617-.37-.74-.124-.247-.37-.37-.617-.493a2.328 2.328 0 00-.988-.247c-.247 0-.37 0-.617.123-.247.124-.37.124-.618.247-.123.123-.37.247-.493.37-.124.123-.124.493-.247.617z" fill="#000"/></g><defs><clipPath id="clip0"><path fill="#fff" d="M0 0h50v86H0z"/></clipPath></defs></svg>
